assets/images/no_content.svg

<svg id="f4dfef0e-e963-4752-8b60-16883a06d9db" data-name="Layer 1" xmlns="http://www.w3.org/2000/svg" width="1080.0487" height="748.00219" viewBox="0 0 1080.0487 748.00219"><title>cancel</title><path d="M832.20759,587.46822c0,67.693-40.24241,91.32887-89.88394,91.32887s-89.88394-23.63587-89.88394-91.32887,89.88394-153.80916,89.88394-153.80916S832.20759,519.77523,832.20759,587.46822Z" transform="translate(-59.97565 -75.99891)" fill="#6c63ff"/><polygon points="679.994 535.79 718.305 465.702 680.138 526.903 680.552 501.43 706.956 450.722 680.662 494.688 681.406 448.873 709.68 408.504 681.523 441.669 681.988 357.66 679.191 464.109 650.56 420.284 678.845 473.092 676.166 524.259 676.087 522.901 642.948 476.597 675.986 527.699 675.651 534.098 675.591 534.195 675.619 534.72 668.823 603 677.902 603 678.992 597.484 711.949 546.507 679.074 592.443 679.994 535.79" fill="#3f3d56"/><path d="M1140.02435,369.81269c0,129.31047-76.873,174.46085-171.7007,174.46085s-171.7007-45.15038-171.7007-174.46085S968.32365,75.99891,968.32365,75.99891,1140.02435,240.50222,1140.02435,369.81269Z" transform="translate(-59.97565 -75.99891)" fill="#f2f2f2"/><polygon points="902.093 448.494 903.851 340.273 977.035 206.388 904.127 323.296 904.918 274.635 955.355 177.771 905.127 261.758 905.127 261.759 906.549 174.24 960.558 97.124 906.772 160.478 907.661 0 902.078 212.444 902.537 203.68 847.625 119.628 901.656 220.503 896.54 318.246 896.387 315.652 833.084 227.2 896.196 324.817 895.556 337.041 895.441 337.225 895.494 338.228 882.513 586.21 899.856 586.21 901.937 458.123 964.894 360.745 902.093 448.494" fill="#3f3d56"/><path d="M1132.97565,640.5574c0,38.59549-250.36912,183.44369-543.05156,183.44369S59.97565,749.0362,59.97565,710.44071s231.44239,7.27952,524.12483,7.27952S1132.97565,601.96192,1132.97565,640.5574Z" transform="translate(-59.97565 -75.99891)" fill="#3f3d56"/><path d="M1132.97565,640.5574c0,38.59549-250.36912,183.44369-543.05156,183.44369S59.97565,749.0362,59.97565,710.44071s231.44239,7.27952,524.12483,7.27952S1132.97565,601.96192,1132.97565,640.5574Z" transform="translate(-59.97565 -75.99891)" opacity="0.1"/><path d="M1132.97565,640.5574c0,38.59549-250.36912,139.76663-543.05156,139.76663S59.97565,749.0362,59.97565,710.44071,291.418,674.04316,584.10048,674.04316,1132.97565,601.96192,1132.97565,640.5574Z" transform="translate(-59.97565 -75.99891)" fill="#3f3d56"/><ellipse cx="535.87833" cy="641.77394" rx="225.04403" ry="17.40672" opacity="0.1"/><path d="M417.57367,368.96457s65.88345,1.22006,53.68281,12.81067-57.953,0-57.953,0Z" transform="translate(-59.97565 -75.99891)" fill="#a0616a"/><path d="M280.30415,228.18183s26.60021-4.75031,35.84921,16.72359,28.244,82.71589,28.244,82.71589,50.83308,33.64785,60.079,32.54232,25.05178,1.15023,22.15247,11.2372-1.6122,21.52484-8.28694,22.92668-17.29058-11.97954-25.415-5.53421-80.53015-17.09648-85.17856-21.97431-43.27878-110.50134-43.27878-110.50134S266.01479,227.83769,280.30415,228.18183Z" transform="translate(-59.97565 -75.99891)" fill="#6c63ff"/><polygon points="277.379 605.607 280.429 631.228 254.808 637.939 240.167 631.228 240.167 608.657 277.379 605.607" fill="#a0616a"/><polygon points="208.445 622.078 211.495 647.699 185.874 654.41 171.233 647.699 171.233 625.128 208.445 622.078" fill="#a0616a"/><path d="M339.7946,401.60128l11.59061,42.0922L368.4661,529.098s4.88026,20.74108-4.88025,45.75239S336.13441,681.60593,339.7946,686.48618s-41.48217,8.54045-40.87214,3.66019,6.71036-71.98376,6.71036-71.98376,8.54044-59.1731,12.81067-66.49348-19.521-25.62134-19.521-25.62134-6.10031,70.15367-15.25079,76.254S275.74125,702.957,271.471,704.17711s-35.38185,6.10032-39.042,0,0-107.97565,0-107.97565,20.74108-77.47406,16.47086-88.45463-1.8301-57.953-1.8301-57.953-15.86083-35.99189-7.32038-54.90287Z" transform="translate(-59.97565 -75.99891)" fill="#2f2e41"/><path d="M337.96451,167.349s-25.62134,31.72166-24.40128,45.75239-40.26211-25.62134-40.26211-25.62134,29.89157-40.2621,29.89157-48.80255S337.96451,167.349,337.96451,167.349Z" transform="translate(-59.97565 -75.99891)" fill="#a0616a"/><circle cx="277.68384" cy="62.98363" r="40.26211" fill="#a0616a"/><path d="M236.19284,378.78c-1.824,6.79577-4.08719,14.50047-3.76385,20.99122.20746,4.20313,11.36489,6.96045,26.79255,8.76616,14.30529,1.67758,32.283,2.53161,48.62569,2.97085,17.16021.46363,32.50245.46363,39.87779.46363,21.96115,0,4.27022-14.03074-4.27023-20.74109s-6.71035-101.87533-6.10031-114.076-5.49029-47.58249-5.49029-54.29285-14.35407-24.22438-14.35407-24.22438-3.33686,9.58362-16.75756-3.227-31.11163-16.47086-31.11163-16.47086c-13.4207,4.88025-35.99188,58.56306-37.21194,67.71354-.49417,3.71507-.08542,22.742.74422,44.46523,1.20174,31.75216,3.30029,69.2874,4.74606,73.27093C239.06,367.531,237.7973,372.80166,236.19284,378.78Z" transform="translate(-59.97565 -75.99891)" fill="#6c63ff"/><polygon points="241.387 338.413 245.657 353.664 229.186 370.745 223.696 346.953 241.387 338.413" fill="#a0616a"/><path d="M306.85288,700.51692s12.81067,14.64076,22.57118,4.88025,9.15048-15.86083,10.98058-15.86083,29.28153,24.40128,29.28153,24.40128,46.97245,10.98057,21.35111,18.911-98.21513,2.44013-98.21513,0-1.8301-34.77182,4.88025-34.77182Z" transform="translate(-59.97565 -75.99891)" fill="#2f2e41"/><path d="M237.91927,716.98778s12.81067,14.64076,22.57118,4.88025,9.15048-15.86083,10.98058-15.86083,29.28153,24.40128,29.28153,24.40128,46.97246,10.98057,21.35112,18.911-98.21514,2.44013-98.21514,0-1.8301-34.77182,4.88025-34.77182Z" transform="translate(-59.97565 -75.99891)" fill="#2f2e41"/><path d="M292.45633,171.12178c-1.30065.84028-2.99385,1.69175-4.29617.85407a194.661,194.661,0,0,1-10.803-37.40333c-.82225-4.49515-1.393-9.49233,1.10424-13.3194.9849-1.50939,2.40274-2.74371,3.12416-4.39532,1.09254-2.50124.37345-5.39643.73641-8.10163.76042-5.66737,6.11775-9.62022,11.505-11.5373s11.23835-2.51176,16.37345-5.02733c4.87591-2.38861,8.78111-6.35,13.3025-9.35611s10.31287-5.0615,15.34812-3.03018c4.45436,1.797,7.229,6.33734,11.43921,8.64913,2.8571,1.5688,6.17272,2.00534,9.36187,2.67875a59.9218,59.9218,0,0,1,24.33972,11.30812,17.67252,17.67252,0,0,1,4.42964,4.56639c5.40289,8.8953-4.27062,20.98885-.00283,30.48113l-9.22662-7.28052a32.13074,32.13074,0,0,0-8.24035-5.237c-3.05623-1.15765-6.67559-1.29745-9.45179.42692-3.89609,2.42-4.95269,7.47582-6.3137,11.8557s-4.3705,9.23676-8.95561,9.12455c-6.23545-.15259-8.41611-8.85468-14.012-11.60979-3.6479-1.796-8.23962-.61324-11.34953,2.00618-3.10968,2.61923-4.97572,6.41973-6.34429,10.24826-.85526,2.39254-1.65774,5.08957-3.1768,7.16346-1.6754,2.28735-3.81829,2.47136-5.60773,4.17946C301.08225,162.81226,298.21838,167.39921,292.45633,171.12178Z" transform="translate(-59.97565 -75.99891)" fill="#2f2e41"/><path d="M236.19284,378.78c7.58272,10.99889,16.12928,22.34547,23.0287,29.75738,14.30529,1.67758,32.283,2.53161,48.62569,2.97085a38.52679,38.52679,0,0,0-10.75486-9.90691C289.162,396.721,270.251,338.768,270.251,338.768s23.18122-59.78313,29.28154-82.35431-17.69093-35.38185-17.69093-35.38185C270.861,211.88135,251.95,233.23247,251.95,233.23247s-9.65075,29.1107-18.7768,57.88593c1.20174,31.75216,3.30029,69.2874,4.74606,73.27093C239.06,367.531,237.7973,372.80166,236.19284,378.78Z" transform="translate(-59.97565 -75.99891)" opacity="0.1"/><path d="M280.01148,216.15157s23.79124,12.81067,17.69092,35.38185-29.28153,82.35431-29.28153,82.35431,18.911,57.953,26.8414,62.83329,18.911,16.47086,10.37055,22.57118-14.64077,15.86083-20.74109,12.81067-6.10032-20.13105-16.47086-20.13105-52.46275-63.44332-53.07278-70.15367,34.77182-113.46594,34.77182-113.46594S269.0309,207.00109,280.01148,216.15157Z" transform="translate(-59.97565 -75.99891)" fill="#6c63ff"/><path d="M774.7215,382.89095l-6.8628-6.86279a21.34485,21.34485,0,0,0-30.18617,0L604.55734,509.14335,471.44215,376.02816a21.34485,21.34485,0,0,0-30.18617,0l-6.86279,6.86279a21.34484,21.34484,0,0,0,0,30.18618L567.50837,546.19232,434.39319,679.3075a21.34484,21.34484,0,0,0,0,30.18618l6.86279,6.86279a21.34485,21.34485,0,0,0,30.18617,0L604.55734,583.24128,737.67253,716.35647a21.34485,21.34485,0,0,0,30.18617,0l6.8628-6.86279a21.34486,21.34486,0,0,0,0-30.18618L641.60631,546.19232,774.7215,413.07713A21.34486,21.34486,0,0,0,774.7215,382.89095Z" transform="translate(-59.97565 -75.99891)" fill="#ff6584"/><path d="M429.6427,686.54463,558.80505,557.38235l-1.24334-1.24334L434.39317,679.30748A21.2598,21.2598,0,0,0,429.6427,686.54463Z" transform="translate(-59.97565 -75.99891)" opacity="0.1"/><path d="M432.5526,387.21818a21.34488,21.34488,0,0,1,30.18621,0L595.854,520.33335,728.96915,387.21818a21.34488,21.34488,0,0,1,30.18621,0l6.86279,6.86279a21.34354,21.34354,0,0,1,4.75047,22.949l3.95289-3.95289a21.34479,21.34479,0,0,0,0-30.18614l-6.86279-6.86279a21.3449,21.3449,0,0,0-30.18621,0L604.55734,509.14331,471.44217,376.02814a21.3449,21.3449,0,0,0-30.18621,0l-6.86279,6.86279a21.2598,21.2598,0,0,0-4.75047,7.23715Z" transform="translate(-59.97565 -75.99891)" opacity="0.1"/><path d="M642.84968,547.43565l-9.94669,9.9467L766.01815,690.49752a21.34356,21.34356,0,0,1,4.75047,22.94907l3.95289-3.953a21.34479,21.34479,0,0,0,0-30.18614Z" transform="translate(-59.97565 -75.99891)" opacity="0.1"/><path d="M214.97565,636.19129c0,56.22159-33.42284,75.85206-74.652,75.85206s-74.652-19.63047-74.652-75.85206,74.652-127.7443,74.652-127.7443S214.97565,579.96971,214.97565,636.19129Z" transform="translate(-59.97565 -75.99891)" fill="#6c63ff"/><polygon points="78.393 580.392 110.212 522.181 78.513 573.011 78.857 551.854 100.786 509.739 78.948 546.255 79.566 508.204 103.048 474.675 79.663 502.221 80.049 432.448 77.726 520.858 53.947 484.46 77.438 528.318 75.214 570.815 75.148 569.687 47.625 531.23 75.064 573.672 74.786 578.987 74.736 579.067 74.759 579.503 69.115 636.212 76.656 636.212 77.561 631.631 104.933 589.293 77.629 627.444 78.393 580.392" fill="#3f3d56"/></svg>

<?xml version="1.0" encoding="UTF-8" standalone="no"?>
<!DOCTYPE svg PUBLIC "-//W3C//DTD SVG 1.1//EN" "http://www.w3.org/Graphics/SVG/1.1/DTD/svg11.dtd">
<svg width="100%" height="100%" viewBox="0 0 1081 749" version="1.1" xmlns="http://www.w3.org/2000/svg" xmlns:xlink="http://www.w3.org/1999/xlink" xml:space="preserve" xmlns:serif="http://www.serif.com/" style="fill-rule:evenodd;clip-rule:evenodd;stroke-linejoin:round;stroke-miterlimit:2;">
    <g transform="matrix(1,0,0,1,-59.9757,-75.9989)">
        <path d="M832.208,587.468C832.208,655.161 791.965,678.797 742.324,678.797C692.682,678.797 652.44,655.161 652.44,587.468C652.44,519.775 742.324,433.659 742.324,433.659C742.324,433.659 832.208,519.775 832.208,587.468Z" style="fill:rgb(255,90,118);fill-rule:nonzero;"/>
    </g>
    <path d="M679.994,535.79L718.305,465.702L680.138,526.903L680.552,501.43L706.956,450.722L680.662,494.688L681.406,448.873L709.68,408.504L681.523,441.669L681.988,357.66L679.191,464.109L650.56,420.284L678.845,473.092L676.166,524.259L676.087,522.901L642.948,476.597L675.986,527.699L675.651,534.098L675.591,534.195L675.619,534.72L668.823,603L677.902,603L678.992,597.484L711.949,546.507L679.074,592.443L679.994,535.79Z" style="fill:rgb(63,61,86);fill-rule:nonzero;"/>
    <g transform="matrix(1,0,0,1,-59.9757,-75.9989)">
        <path d="M1140.02,369.813C1140.02,499.123 1063.15,544.274 968.324,544.274C873.496,544.274 796.623,499.123 796.623,369.813C796.623,240.502 968.324,75.999 968.324,75.999C968.324,75.999 1140.02,240.502 1140.02,369.813Z" style="fill:rgb(242,242,242);fill-rule:nonzero;"/>
    </g>
    <path d="M902.093,448.494L903.851,340.273L977.035,206.388L904.127,323.296L904.918,274.635L955.355,177.771L905.127,261.758L905.127,261.759L906.549,174.24L960.558,97.124L906.772,160.478L907.661,0L902.078,212.444L902.537,203.68L847.625,119.628L901.656,220.503L896.54,318.246L896.387,315.652L833.084,227.2L896.196,324.817L895.556,337.041L895.441,337.225L895.494,338.228L882.513,586.21L899.856,586.21L901.937,458.123L964.894,360.745L902.093,448.494Z" style="fill:rgb(63,61,86);fill-rule:nonzero;"/>
    <g transform="matrix(1,0,0,1,-59.9757,-75.9989)">
        <path d="M1132.98,640.557C1132.98,679.153 882.607,824.001 589.924,824.001C297.242,824.001 59.976,749.036 59.976,710.441C59.976,671.845 291.418,717.72 584.1,717.72C876.783,717.72 1132.98,601.962 1132.98,640.557Z" style="fill:rgb(63,61,86);fill-rule:nonzero;"/>
    </g>
    <g transform="matrix(1,0,0,1,-59.9757,-75.9989)">
        <path d="M1132.98,640.557C1132.98,679.153 882.607,824.001 589.924,824.001C297.242,824.001 59.976,749.036 59.976,710.441C59.976,671.845 291.418,717.72 584.1,717.72C876.783,717.72 1132.98,601.962 1132.98,640.557Z" style="fill-opacity:0.1;fill-rule:nonzero;"/>
    </g>
    <g transform="matrix(1,0,0,1,-59.9757,-75.9989)">
        <path d="M1132.98,640.557C1132.98,679.153 882.607,780.324 589.924,780.324C297.242,780.324 59.976,749.036 59.976,710.441C59.976,671.845 291.418,674.043 584.1,674.043C876.783,674.043 1132.98,601.962 1132.98,640.557Z" style="fill:rgb(63,61,86);fill-rule:nonzero;"/>
    </g>
    <ellipse cx="535.878" cy="641.774" rx="225.044" ry="17.407" style="fill-opacity:0.1;"/>
    <g transform="matrix(1,0,0,1,-59.9757,-75.9989)">
        <path d="M417.574,368.965C417.574,368.965 483.457,370.185 471.256,381.775C459.056,393.366 413.303,381.775 413.303,381.775L417.574,368.965Z" style="fill:rgb(160,97,106);fill-rule:nonzero;"/>
    </g>
    <g transform="matrix(1,0,0,1,-59.9757,-75.9989)">
        <path d="M280.304,228.182C280.304,228.182 306.904,223.432 316.153,244.905C325.402,266.379 344.397,327.621 344.397,327.621C344.397,327.621 395.23,361.269 404.476,360.164C413.722,359.058 429.528,361.314 426.629,371.401C423.73,381.488 425.017,392.926 418.342,394.328C411.667,395.729 401.051,382.348 392.927,388.793C384.802,395.239 312.397,371.697 307.748,366.819C303.1,361.941 264.47,256.318 264.47,256.318C264.47,256.318 266.015,227.838 280.304,228.182Z" style="fill:rgb(255,90,118);fill-rule:nonzero;"/>
    </g>
    <path d="M277.379,605.607L280.429,631.228L254.808,637.939L240.167,631.228L240.167,608.657L277.379,605.607Z" style="fill:rgb(160,97,106);fill-rule:nonzero;"/>
    <path d="M208.445,622.078L211.495,647.699L185.874,654.41L171.233,647.699L171.233,625.128L208.445,622.078Z" style="fill:rgb(160,97,106);fill-rule:nonzero;"/>
    <g transform="matrix(1,0,0,1,-59.9757,-75.9989)">
        <path d="M339.795,401.601L351.385,443.693L368.466,529.098C368.466,529.098 373.346,549.839 363.586,574.85C353.825,599.862 336.134,681.606 339.795,686.486C343.455,691.366 298.312,695.027 298.922,690.146C299.532,685.266 305.633,618.163 305.633,618.163C305.633,618.163 314.173,558.99 318.443,551.669C322.714,544.349 298.922,526.048 298.922,526.048C298.922,526.048 292.822,596.201 283.672,602.302C274.521,608.402 275.741,702.957 271.471,704.177C267.201,705.397 236.089,710.277 232.429,704.177C228.769,698.077 232.429,596.201 232.429,596.201C232.429,596.201 253.17,518.727 248.9,507.747C244.63,496.766 247.07,449.794 247.07,449.794C247.07,449.794 231.209,413.802 239.749,394.891L339.795,401.601Z" style="fill:rgb(47,46,65);fill-rule:nonzero;"/>
    </g>
    <g transform="matrix(1,0,0,1,-59.9757,-75.9989)">
        <path d="M337.965,167.349C337.965,167.349 312.343,199.071 313.563,213.101C314.783,227.132 273.301,187.48 273.301,187.48C273.301,187.48 303.193,147.218 303.193,138.677C303.193,130.137 337.965,167.349 337.965,167.349Z" style="fill:rgb(160,97,106);fill-rule:nonzero;"/>
    </g>
    <circle cx="277.684" cy="62.984" r="40.262" style="fill:rgb(160,97,106);"/>
    <g transform="matrix(1,0,0,1,-59.9757,-75.9989)">
        <path d="M236.193,378.78C234.369,385.576 232.106,393.28 232.429,399.771C232.636,403.974 243.794,406.732 259.222,408.537C273.527,410.215 291.505,411.069 307.847,411.508C325.007,411.972 340.35,411.972 347.725,411.972C369.686,411.972 351.995,397.941 343.455,391.231C334.914,384.52 336.744,289.355 337.354,277.155C337.965,264.954 331.864,229.572 331.864,222.862C331.864,216.152 317.51,198.638 317.51,198.638C317.51,198.638 314.173,208.221 300.753,195.411C287.332,182.6 269.641,178.94 269.641,178.94C256.22,183.82 233.649,237.503 232.429,246.653C231.935,250.368 232.344,269.395 233.173,291.118C234.375,322.871 236.474,360.406 237.919,364.389C239.06,367.531 237.797,372.802 236.193,378.78Z" style="fill:rgb(255,90,118);fill-rule:nonzero;"/>
    </g>
    <path d="M241.387,338.413L245.657,353.664L229.186,370.745L223.696,346.953L241.387,338.413Z" style="fill:rgb(160,97,106);fill-rule:nonzero;"/>
    <g transform="matrix(1,0,0,1,-59.9757,-75.9989)">
        <path d="M306.853,700.517C306.853,700.517 319.664,715.158 329.424,705.397C339.185,695.637 338.575,689.536 340.405,689.536C342.235,689.536 369.686,713.938 369.686,713.938C369.686,713.938 416.659,724.918 391.037,732.849C365.416,740.779 292.822,735.289 292.822,732.849C292.822,730.408 290.992,698.077 297.702,698.077L306.853,700.517Z" style="fill:rgb(47,46,65);fill-rule:nonzero;"/>
    </g>
    <g transform="matrix(1,0,0,1,-59.9757,-75.9989)">
        <path d="M237.919,716.988C237.919,716.988 250.73,731.629 260.49,721.868C270.251,712.108 269.641,706.007 271.471,706.007C273.301,706.007 300.753,730.408 300.753,730.408C300.753,730.408 347.725,741.389 322.104,749.319C296.482,757.25 223.889,751.76 223.889,749.319C223.889,746.879 222.058,714.548 228.769,714.548L237.919,716.988Z" style="fill:rgb(47,46,65);fill-rule:nonzero;"/>
    </g>
    <g transform="matrix(1,0,0,1,-59.9757,-75.9989)">
        <path d="M292.456,171.122C291.156,171.962 289.462,172.814 288.16,171.976C283.318,159.9 279.699,147.37 277.357,134.573C276.535,130.077 275.964,125.08 278.461,121.253C279.446,119.744 280.864,118.509 281.586,116.858C282.678,114.357 281.959,111.461 282.322,108.756C283.082,103.089 288.44,99.136 293.827,97.219C299.214,95.302 305.065,94.707 310.2,92.192C315.076,89.803 318.982,85.842 323.503,82.835C328.024,79.829 333.816,77.774 338.851,79.805C343.305,81.602 346.08,86.143 350.29,88.454C353.147,90.023 356.463,90.46 359.652,91.133C368.516,93.014 376.838,96.88 383.992,102.441C385.732,103.683 387.233,105.23 388.421,107.008C393.824,115.903 384.151,127.996 388.419,137.489L379.192,130.208C376.728,128.053 373.949,126.287 370.952,124.971C367.895,123.814 364.276,123.674 361.5,125.398C357.604,127.818 356.547,132.874 355.186,137.254C353.825,141.634 350.816,146.491 346.231,146.378C339.995,146.226 337.814,137.524 332.219,134.769C328.571,132.973 323.979,134.155 320.869,136.775C317.759,139.394 315.893,143.195 314.525,147.023C313.669,149.416 312.867,152.113 311.348,154.187C309.673,156.474 307.53,156.658 305.74,158.366C301.082,162.812 298.218,167.399 292.456,171.122Z" style="fill:rgb(47,46,65);fill-rule:nonzero;"/>
    </g>
    <g transform="matrix(1,0,0,1,-59.9757,-75.9989)">
        <path d="M236.193,378.78C243.776,389.779 252.322,401.125 259.222,408.537C273.527,410.215 291.505,411.069 307.847,411.508C304.928,407.55 301.277,404.187 297.092,401.601C289.162,396.721 270.251,338.768 270.251,338.768C270.251,338.768 293.432,278.985 299.533,256.414C305.633,233.843 281.842,221.032 281.842,221.032C270.861,211.881 251.95,233.232 251.95,233.232C251.95,233.232 242.299,262.343 233.173,291.118C234.375,322.871 236.473,360.406 237.919,364.389C239.06,367.531 237.797,372.802 236.193,378.78Z" style="fill-opacity:0.1;fill-rule:nonzero;"/>
    </g>
    <g transform="matrix(1,0,0,1,-59.9757,-75.9989)">
        <path d="M280.011,216.152C280.011,216.152 303.803,228.962 297.702,251.533C291.602,274.105 268.421,333.888 268.421,333.888C268.421,333.888 287.332,391.841 295.262,396.721C303.193,401.601 314.173,413.192 305.633,419.292C297.092,425.393 290.992,435.153 284.892,432.103C278.791,429.053 278.791,411.972 268.421,411.972C258.05,411.972 215.958,348.529 215.348,341.818C214.738,335.108 250.12,228.352 250.12,228.352C250.12,228.352 269.031,207.001 280.011,216.152Z" style="fill:rgb(255,90,118);fill-rule:nonzero;"/>
    </g>
    <g transform="matrix(1,0,0,1,-59.9757,-75.9989)">
        <path d="M774.722,382.891L767.859,376.028C759.579,367.748 745.952,367.748 737.673,376.028L604.557,509.143L471.442,376.028C463.162,367.748 449.536,367.748 441.256,376.028L434.393,382.891C430.392,386.892 428.141,392.325 428.141,397.984C428.141,403.643 430.392,409.076 434.393,413.077L567.508,546.192L434.393,679.308C430.392,683.309 428.141,688.742 428.141,694.401C428.141,700.059 430.392,705.492 434.393,709.494L441.256,716.356C449.536,724.636 463.162,724.636 471.442,716.356L604.557,583.241L737.673,716.356C745.952,724.636 759.579,724.636 767.859,716.356L774.722,709.494C783.001,701.214 783.001,687.587 774.722,679.307L641.606,546.192L774.722,413.077C783.001,404.797 783.001,391.171 774.722,382.891Z" style="fill:rgb(209,0,33);fill-rule:nonzero;"/>
    </g>
    <g transform="matrix(1,0,0,1,-59.9757,-75.9989)">
        <path d="M429.643,686.545L558.805,557.382L557.562,556.139L434.393,679.307C432.33,681.368 430.713,683.832 429.643,686.545Z" style="fill-opacity:0.1;fill-rule:nonzero;"/>
    </g>
    <g transform="matrix(1,0,0,1,-59.9757,-75.9989)">
        <path d="M432.553,387.218C440.832,378.938 454.459,378.938 462.739,387.218L595.854,520.333L728.969,387.218C737.249,378.938 750.876,378.938 759.155,387.218L766.018,394.081C772.024,400.088 773.896,409.132 770.769,417.03L774.722,413.077C778.723,409.076 780.973,403.643 780.973,397.984C780.973,392.325 778.723,386.892 774.722,382.891L767.859,376.028C759.579,367.748 745.952,367.748 737.673,376.028L604.557,509.143L471.442,376.028C463.162,367.748 449.536,367.748 441.256,376.028L434.393,382.891C432.33,384.952 430.713,387.415 429.643,390.128L432.553,387.218Z" style="fill-opacity:0.1;fill-rule:nonzero;"/>
    </g>
    <g transform="matrix(1,0,0,1,-59.9757,-75.9989)">
        <path d="M642.85,547.436L632.903,557.382L766.018,690.498C772.024,696.504 773.896,705.549 770.769,713.447L774.722,709.494C778.723,705.492 780.973,700.059 780.973,694.401C780.973,688.742 778.723,683.309 774.722,679.307L642.85,547.436Z" style="fill-opacity:0.1;fill-rule:nonzero;"/>
    </g>
    <g transform="matrix(1,0,0,1,-59.9757,-75.9989)">
        <path d="M214.976,636.191C214.976,692.413 181.553,712.043 140.324,712.043C99.094,712.043 65.672,692.413 65.672,636.191C65.672,579.97 140.324,508.447 140.324,508.447C140.324,508.447 214.976,579.97 214.976,636.191Z" style="fill:rgb(255,90,118);fill-rule:nonzero;"/>
    </g>
    <path d="M78.393,580.392L110.212,522.181L78.513,573.011L78.857,551.854L100.786,509.739L78.948,546.255L79.566,508.204L103.048,474.675L79.663,502.221L80.049,432.448L77.726,520.858L53.947,484.46L77.438,528.318L75.214,570.815L75.148,569.687L47.625,531.23L75.064,573.672L74.786,578.987L74.736,579.067L74.759,579.503L69.115,636.212L76.656,636.212L77.561,631.631L104.933,589.293L77.629,627.444L78.393,580.392Z" style="fill:rgb(63,61,86);fill-rule:nonzero;"/>
</svg>
